X: 9
T: Foxhunters
R: Slip jig
M: 9/8
L: 1/8
K: Gmaj
|: B3 B^AB ~c2 A | B2 B BGB A2 G | BcB B^AB c2 e | dBG GAB A2 G :|
|: e3 edc Bcd | e2 A A2 B c2 e | dd/e/f gfe def | g2 G G2 B A2 G :|
